cached_logos/infinidat.svg

<svg id="Layer_1" data-name="Layer 1" xmlns="http://www.w3.org/2000/svg" viewBox="-4.7999999999999545 7.920000000000002 561.6 56.160000000000004"><title>infinidat</title><path d="M545.5,16.34V9H489.1v7.34h23.81V63.06h8.68V16.34Zm-94.73-1.16,14.02,27.66H436.74l14.03-27.66ZM426.45,63.06l6.65-13.31h35.22l6.65,13.31h9.59L455.6,9h-9.27L417.87,63.06ZM391.33,20.43q5.76,4.515,5.76,15.23,0,11.13-5.76,15.65-5.25,4.2-17.35,4.2H355.22V16.23h18.76q12,0,17.35,4.2M346.53,9V63.06h28.65q13.83,0,19.98-4.19c7.2-4.9,10.8-12.6,10.8-23.16a30.06963,30.06963,0,0,0-2.87-13.19,22.85428,22.85428,0,0,0-7.92-9.33Q388.915,9.005,375.19,9H346.53ZM319.49,9h-8.68V63.06h8.68V9ZM234.33,63.06V31.21a98.35363,98.35363,0,0,0-.6-11.84,17.59007,17.59007,0,0,0,2.73,3.67c.2.21,1.04,1.01,2.52,2.41l40.06,37.61h4.84V9h-8.07V38.65a85.51678,85.51678,0,0,0,.82,13.3,51.6084,51.6084,0,0,0-5.95-6.81L231.71,9h-5.45V63.06ZM199.22,9h-8.68V63.06h8.68V9ZM134.95,63.06V41.27h23.31V34.04H134.95V16.34h40.86V9H126.27V63.06Zm-85.16,0V31.21a96.09368,96.09368,0,0,0-.61-11.84,17.59012,17.59012,0,0,0,2.73,3.67c.2.21,1.04,1.01,2.52,2.41L94.49,63.06h4.85V9H91.26V38.65a85.51678,85.51678,0,0,0,.82,13.3,50.88722,50.88722,0,0,0-5.95-6.81L47.17,9H41.72V63.06ZM14.68,9H6V63.06h8.68V9Z"/></svg>

<svg xmlns="http://www.w3.org/2000/svg" role="img" viewBox="-4.78 -1.78 560.56 75.06"><title>INFINIDAT logo</title><path d="M545.5 16.34V9h-56.4v7.34h23.81v46.72h8.68V16.34zm-94.73-1.16l14.02 27.66h-28.05l14.03-27.66zm-24.32 47.88l6.65-13.31h35.22l6.65 13.31h9.59L455.6 9h-9.27l-28.46 54.06zm-35.12-42.63q5.76 4.515 5.76 15.23 0 11.13-5.76 15.65-5.25 4.2-17.35 4.2h-18.76V16.23h18.76q12 0 17.35 4.2M346.53 9v54.06h28.65q13.83 0 19.98-4.19c7.2-4.9 10.8-12.6 10.8-23.16a30.07 30.07 0 0 0-2.87-13.19 22.854 22.854 0 0 0-7.92-9.33Q388.915 9.005 375.19 9h-28.66zm-27.04 0h-8.68v54.06h8.68V9zm-85.16 54.06V31.21a98.354 98.354 0 0 0-.6-11.84 17.59 17.59 0 0 0 2.73 3.67c.2.21 1.04 1.01 2.52 2.41l40.06 37.61h4.84V9h-8.07v29.65a85.517 85.517 0 0 0 .82 13.3 51.608 51.608 0 0 0-5.95-6.81L231.71 9h-5.45v54.06zM199.22 9h-8.68v54.06h8.68V9zm-64.27 54.06V41.27h23.31v-7.23h-23.31v-17.7h40.86V9h-49.54v54.06zm-85.16 0V31.21a96.094 96.094 0 0 0-.61-11.84 17.59 17.59 0 0 0 2.73 3.67c.2.21 1.04 1.01 2.52 2.41l40.06 37.61h4.85V9h-8.08v29.65a85.517 85.517 0 0 0 .82 13.3 50.887 50.887 0 0 0-5.95-6.81L47.17 9h-5.45v54.06zM14.68 9H6v54.06h8.68V9z"/></svg>
